modules/coreui-icons-free/icons/wifi-signal-4.svg

<!-- Generated by IcoMoon.io -->
<svg version="1.1" xmlns="http://www.w3.org/2000/svg" width="24" height="24" viewBox="0 0 24 24">
<title>wifi-signal-4</title>
<path d="M23.615 5.824c-3.237-2.291-7.266-3.662-11.615-3.662s-8.378 1.371-11.678 3.705l0.063-0.043-0.010 0.007v1.286l10.771 15.383h1.708l10.771-15.382v-1.286zM18.906 4.977l-8.876 13.314-1.129-1.612 8.109-12.339c0.776 0.215 1.406 0.432 2.020 0.681l-0.124-0.045zM13.425 3.716c0.769 0.059 1.463 0.152 2.144 0.283l-0.117-0.019-7.476 11.377-1.244-1.776zM5.811 12.266l-1.069-1.526 4.592-6.889c0.682-0.103 1.482-0.169 2.294-0.185l0.018-0zM7.252 4.27l-3.434 5.151-1.95-2.785c1.547-1.011 3.339-1.822 5.253-2.336l0.13-0.030zM12 21.105l-1.047-1.495 9.343-14.014c0.729 0.362 1.33 0.707 1.908 1.084l-0.073-0.044z"></path>
</svg>

<svg xmlns="http://www.w3.org/2000/svg" width="24" height="24" viewBox="0 0 24 24"><path d="M23.615 5.824C20.378 3.533 16.349 2.162 12 2.162S3.622 3.533.322 5.867l.063-.043-.01.007v1.286L11.146 22.5h1.708L23.625 7.118V5.832zm-4.709-.847L10.03 18.291l-1.129-1.612L17.01 4.34c.776.215 1.406.432 2.02.681l-.124-.045zm-5.481-1.261c.769.059 1.463.152 2.144.283l-.117-.019-7.476 11.377-1.244-1.776zm-7.614 8.55L4.742 10.74l4.592-6.889a18.16 18.16 0 012.294-.185h.018zM7.252 4.27L3.818 9.421l-1.95-2.785A18.37 18.37 0 017.121 4.3l.13-.03zM12 21.105l-1.047-1.495 9.343-14.014a18.3 18.3 0 011.908 1.084l-.073-.044z"/></svg>
